X:1
T:Miss Marshall Gardiner
M:C
L:1/8
R:Reel
B:John McLachlan - Piper’s Assistant (1854, No. 110, p. 67)
Z:AK/Fiddler’s Companion
K:Amix
c|AA a2 afef|afef ecBc|AA a2 afef|afec BB Tf2:|
|:AAcA ecce|fddf ecca|AAcA ecce|fdec BBTf2:|]

